X:1
T:Meditation, CM
T:Meditation, CM
T:John Henry Gower, 1890
T:Public Domain Courtesy of the Cyber Hymnal™
C:John Henry Gower, 1890
Z:Public Domain
Z:Courtesy of the Cyber Hymnal™
%%score 1 ( 2 3 )
L:1/8
Q:1/4=110
M:4/4
K:Eb
V:1 treble 
V:2 bass 
V:3 bass 
V:1
 [EG]2 | [EG]2 [EG]2 [EG]2 [EG]2 | [EG]3 [B,E] [B,E]2 [B,E]2 | [CA]2 [EA]2 [DG]2 [DF]2 | %4
 [EB]6 [DB]2 | [EB]2 [EB]2 [=Ec]2 [EG]2 | [GB]2 [FA]2 [CG]2 [CF]2 | [B,G]2 [B,E]2 [CE]2 [B,D]2 | %8
 [B,E]6 |] %9
V:2
 [E,B,]2 | [E,B,]2 [E,B,]2 [E,B,]2 [C,B,]2 | [B,,B,]3 [B,,G,] [B,,G,]2 [B,,G,]2 | %3
 [B,,F,]2 [B,,C]2 B,2 [A,B,]2 | [G,B,]6 [F,A,]2 | [E,G,]2 [_D,G,]2 [C,G,]2 [C,C]2 | %6
 [F,C]2 [F,,C]2 [G,,B,]2 [A,,A,]2 | [B,,E,]2 [B,,G,]2 [B,,A,]2 [B,,A,]2 | [E,G,]6 |] %9
V:3
 x2 | x8 | x8 | x4 B,2 x2 | x8 | x8 | x8 | x8 | x6 |] %9

